X: 35
M:2/4
L:1/16
K:D
uA2|.d2(fd) ceAc|dAfd egce|.d2(fd) ceAg|fdec d2A2|
.d2(fd) ceAc|dAfd egce|.d2(fd) ceAg|fdec d2:|
|:vAG|FDAF dABG|FDAF EcAG|FDAF dABG|FDEC .D2(AG)|


